_includes/icons/color-available-updates.svg

<svg fill="#666" height="50" viewBox="0 0 48 48" width="50" xmlns="http://www.w3.org/2000/svg"><g fill="#2196f3"><path d="m42 13-9-8v16z"/><path d="m34 16s-18-.003906-19 0c-1 0-1 .996094-1 .996094v4.003906h-6v-5c0-3.308594 2.691406-6 6-6h20z"/><path d="m6 35 9 8v-16z"/><path d="m14 32.003906h19c1-.003906 1-1 1-1v-4.003906h6v5.003906c0 3.304688-2.691406 5.996094-6 5.996094h-20z"/></g></svg>

<svg xmlns="http://www.w3.org/2000/svg" viewBox="0 0 48 48" width="50" height="50" fill="#666"><g fill="#2196f3"><path d="M 42 13 L 33 5 L 33 21 Z"/><path d="M 34 16 C 34 16 16 15.996094 15 16 C 14 16 14 16.996094 14 16.996094 L 14 21 L 8 21 L 8 16 C 8 12.691406 10.691406 10 14 10 L 34 10 Z"/><path d="M 6 35 L 15 43 L 15 27 Z"/><path d="M 14 32.003906 C 14 32.003906 32 32.003906 33 32.003906 C 34 32 34 31.003906 34 31.003906 L 34 27 L 40 27 L 40 32.003906 C 40 35.308594 37.308594 38 34 38 L 14 38 Z"/></g></svg>
